src/svg/icons/pencil.svg

<svg viewBox="0 0 20 20"><path d="M8.2 1.2l-7 9.9c-.1.2-.2.4-.2.6v6.7c0 .3.2.6.4.8.3.2.6.2.9.1L8.5 17c.2-.1.3-.2.4-.4l7-9.9c.4-.5.5-1.1.5-1.7 0-.3-.1-.7-.2-1-.1-.3-.4-.6-.7-.8l-4-2.8c-.2-.3-.7-.4-1.1-.4-.8 0-1.6.5-2.2 1.2zm-.1 13.1l-4.5-3.2 4.6-6.5 4.5 3.2-4.6 6.5zM3 13.2l3.4 2.4L3 17v-3.8zM10.5 2l4 2.8V5c0 .1-.1.3-.2.5l-.5.7-4.4-3.1.5-.7c.1-.3.4-.4.6-.4zM19 19c0-.5-.5-1-1-1H9.9c-.6 0-1 .5-1 1s.4 1 1 1H18c.5 0 1-.5 1-1z"/></svg>

<?xml version="1.0" encoding="utf-8"?>
<!-- Generator: Adobe Illustrator 19.2.1, SVG Export Plug-In . SVG Version: 6.00 Build 0)  -->
<svg version="1.1" id="Calque_1" xmlns="http://www.w3.org/2000/svg" xmlns:xlink="http://www.w3.org/1999/xlink" x="0px" y="0px"
	 viewBox="0 0 20 20" style="enable-background:new 0 0 20 20;" xml:space="preserve">
<style type="text/css">
	.st0{fill:#3A434C;}
</style>
<path class="st0" d="M8.2,1.2l-7,9.9C1.1,11.3,1,11.5,1,11.7l0,6.7c0,0.3,0.2,0.6,0.4,0.8c0.3,0.2,0.6,0.2,0.9,0.1L8.5,17
	c0.2-0.1,0.3-0.2,0.4-0.4l7-9.9c0.4-0.5,0.5-1.1,0.5-1.7c0-0.3-0.1-0.7-0.2-1c-0.1-0.3-0.4-0.6-0.7-0.8l-4-2.8l0,0
	C11.3,0.1,10.8,0,10.4,0C9.6,0,8.8,0.5,8.2,1.2z M8.1,14.3l-4.5-3.2l4.6-6.5l4.5,3.2L8.1,14.3z M3,13.2l3.4,2.4L3,17V13.2z M10.5,2
	L10.5,2l4,2.8l0,0l0,0.2c0,0.1-0.1,0.3-0.2,0.5l-0.5,0.7L9.4,3.1l0.5-0.7C10,2.1,10.3,2,10.5,2L10.5,2L10.5,2z"/>
<path class="st0" d="M19,19c0-0.5-0.5-1-1-1H9.9c-0.6,0-1,0.5-1,1s0.4,1,1,1H18C18.5,20,19,19.5,19,19z"/>
</svg>
